packages/core/src/svgs/ring.svg

<svg width="24" height="24" viewBox="0 0 24 24" fill="none" xmlns="http://www.w3.org/2000/svg">
<g clip-path="url(#clip0_31_17256)">
<path d="M0 0H24V24H0V0Z" fill="url(#paint0_linear_31_17256)"/>
<path d="M4.71431 9.83557C4.97446 9.78246 5.20562 9.63465 5.36299 9.4208C5.52036 9.20694 5.59271 8.94227 5.56602 8.6781C5.53934 8.41392 5.41551 8.16907 5.21855 7.99101C5.02159 7.81294 4.76554 7.71436 4.50002 7.71436C4.2345 7.71436 3.97844 7.81294 3.78149 7.99101C3.58453 8.16907 3.4607 8.41392 3.43402 8.6781C3.40733 8.94227 3.47968 9.20694 3.63705 9.4208C3.79441 9.63465 4.02558 9.78246 4.28573 9.83557V14.9999H4.71431V9.83557ZM12.7316 10.9421C13.1559 10.2633 13.6547 9.77985 14.1429 9.46571V13.307C13.8827 13.3601 13.6516 13.5079 13.4942 13.7218C13.3368 13.9356 13.2645 14.2003 13.2912 14.4645C13.3178 14.7286 13.4417 14.9735 13.6386 15.1516C13.8356 15.3296 14.0916 15.4282 14.3572 15.4282C14.6227 15.4282 14.8787 15.3296 15.0757 15.1516C15.2727 14.9735 15.3965 14.7286 15.4232 14.4645C15.4499 14.2003 15.3775 13.9356 15.2201 13.7218C15.0628 13.5079 14.8316 13.3601 14.5714 13.307V9.22956C14.9139 9.07314 15.2379 8.99985 15.5113 8.99985H16.7143V14.1641C16.4542 14.2172 16.223 14.365 16.0656 14.5789C15.9083 14.7928 15.8359 15.0574 15.8626 15.3216C15.8893 15.5858 16.0131 15.8306 16.2101 16.0087C16.407 16.1868 16.6631 16.2853 16.9286 16.2853C17.1941 16.2853 17.4502 16.1868 17.6471 16.0087C17.8441 15.8306 17.9679 15.5858 17.9946 15.3216C18.0213 15.0574 17.9489 14.7928 17.7916 14.5789C17.6342 14.365 17.403 14.2172 17.1429 14.1641V8.99985H19.2857V14.1641C19.0256 14.2172 18.7944 14.365 18.637 14.5789C18.4797 14.7928 18.4073 15.0574 18.434 15.3216C18.4607 15.5858 18.5845 15.8306 18.7815 16.0087C18.9784 16.1868 19.2345 16.2853 19.5 16.2853C19.7655 16.2853 20.0216 16.1868 20.2186 16.0087C20.4155 15.8306 20.5393 15.5858 20.566 15.3216C20.5927 15.0574 20.5204 14.7928 20.363 14.5789C20.2056 14.365 19.9745 14.2172 19.7143 14.1641V8.99985H20.5714V8.57128H15.5113C14.5543 8.57128 13.2613 9.26128 12.3412 10.76C12.0531 10.6805 11.7463 10.7039 11.4735 10.8261C11.2008 10.9483 10.9791 11.1617 10.8467 11.4297C10.7142 11.6976 10.6793 12.0033 10.7478 12.2942C10.8163 12.5851 10.9841 12.8431 11.2222 13.0237C10.8668 13.57 10.402 14.0367 9.85716 14.3943V10.6927C10.1173 10.6396 10.3485 10.4918 10.5058 10.2779C10.6632 10.0641 10.7356 9.79941 10.7089 9.53524C10.6822 9.27107 10.5584 9.02621 10.3614 8.84815C10.1645 8.67009 9.90839 8.5715 9.64288 8.5715C9.37736 8.5715 9.1213 8.67009 8.92434 8.84815C8.72739 9.02621 8.60356 9.27107 8.57687 9.53524C8.55019 9.79941 8.62254 10.0641 8.77991 10.2779C8.93727 10.4918 9.16844 10.6396 9.42859 10.6927V14.6394C8.92888 14.8871 8.44588 14.9999 8.06316 14.9999H3.42859V15.4284H8.06316C9.08573 15.4284 10.6059 14.7667 11.6032 13.223C11.8969 13.3188 12.2153 13.3056 12.5002 13.1858C12.785 13.066 13.0171 12.8477 13.1541 12.5708C13.2912 12.2938 13.3239 11.9768 13.2463 11.6777C13.1687 11.3787 12.986 11.1175 12.7316 10.9421ZM6.85716 9.83557C6.59701 9.78246 6.36584 9.63465 6.20848 9.4208C6.05111 9.20694 5.97876 8.94227 6.00545 8.6781C6.03213 8.41392 6.15596 8.16907 6.35292 7.99101C6.54987 7.81294 6.80593 7.71436 7.07145 7.71436C7.33696 7.71436 7.59302 7.81294 7.78998 7.99101C7.98694 8.16907 8.11076 8.41392 8.13745 8.6781C8.16414 8.94227 8.09179 9.20694 7.93442 9.4208C7.77705 9.63465 7.54589 9.78246 7.28573 9.83557V14.9999H6.85716V9.83557Z" fill="white"/>
</g>
<defs>
<linearGradient id="paint0_linear_31_17256" x1="3.68186" y1="3.70457" x2="18.9891" y2="21.6651" gradientUnits="userSpaceOnUse">
<stop stop-color="#4530DD"/>
<stop offset="1" stop-color="#FB3777"/>
</linearGradient>
<clipPath id="clip0_31_17256">
<rect width="24" height="24" fill="white"/>
</clipPath>
</defs>
</svg>

<svg xmlns="http://www.w3.org/2000/svg" width="24" height="24" fill="none" viewBox="0 0 24 24"><g clip-path="url(#a)"><path fill="url(#b)" d="M0 0h24v24H0z"/><path fill="#fff" d="M4.714 9.836a1.071 1.071 0 1 0-.428 0V15h.428zm8.018 1.106c.424-.679.923-1.162 1.41-1.476v3.841a1.071 1.071 0 1 0 .43 0V9.23c.342-.157.666-.23.94-.23h1.202v5.164a1.072 1.072 0 1 0 .429 0V9h2.143v5.164a1.072 1.072 0 1 0 .428 0V9h.857V8.57h-5.06c-.957 0-2.25.69-3.17 2.189a1.286 1.286 0 0 0-1.119 2.264 4.7 4.7 0 0 1-1.365 1.37v-3.701a1.071 1.071 0 1 0-.428 0v3.946c-.5.248-.983.36-1.366.36H3.43v.43h4.634c1.023 0 2.543-.662 3.54-2.206a1.286 1.286 0 0 0 1.129-2.28M6.857 9.836a1.071 1.071 0 1 1 .429 0V15h-.429z"/></g><defs><linearGradient id="b" x1="3.682" x2="18.989" y1="3.705" y2="21.665" gradientUnits="userSpaceOnUse"><stop stop-color="#4530DD"/><stop offset="1" stop-color="#FB3777"/></linearGradient><clipPath id="a"><path fill="#fff" d="M0 0h24v24H0z"/></clipPath></defs></svg>
